X: 11
T: Zachowaj mię, o Sprawco niebieskiego domu!
C: Mikołaj Gomółka
%%abc-version 2.0
%%abcx-abcm2ps-target-version 5.9.1 (29 Sep 2008)
%%abc-creator hum2abc beta
%%abcx-conversion-date 2021/10/04 07:59:10
%%abc-edited-by Leszek Kubiak
%%abcx-initial-encoding-date data 2020-02-03
%%humdrum-veritas 2792817199
%%humdrum-veritas-data 1994180153
%%linebreak <none>
%%barnumbers 0
L: 1/4
M: C
N: Derived from pl-wn--sd-xvi-qu-273--012_gomolka-mikolaj--zachowaj-mie-o-sprawco-niebieskiego-domu.krn
%%staves [1 2 3 4]
V: 1 clef=treble
V: 2
V: 3 clef=alto
V: 4
K: F
[V:1] z2A2A4 [|] 
[V:2] z2^F2F4 [|] 
[V:3] z2D2D4 [|] 
[V:4] z2D,2D,4 [|] 
[V:1] B4A2d4 [|] 
[V:2] G4E2G2 [|] 
[V:3] D4^C2D4 [|] 
[V:4] G,4A,2G,2 [|] 
[V:1] d2c2e4 [|] 
[V:2] F2>G2A2A4 [|] 
[V:3] D2E2^C4 [|] 
[V:4] B,4A,2A,4 [|] 
[V:1] f4d2 [|] 
[V:2] A4G2 [|] 
[V:3] D2D4 [|] 
[V:4] D,4G,2 [|] 
[V:1] d4g6 [|] 
[V:2] B2>A2G4 [|] 
[V:3] B,CD4^CB, [|] 
[V:4] G,2>F,2E,8 [|] 
[V:1] f^e^f2A2 [|] 
[V:2] G4A2F2 [|] 
[V:3] CD2^CD2D2 [|] 
[V:4] D,2D,2 [|] 
[V:1] A2A2GFED [|] 
[V:2] E2c2B2G2 [|] 
[V:3] C2F2EDD4 [|] 
[V:4] A,2F,2G,2B,2 [|] 
[V:1] E4D2A4 [|] 
[V:2] A2>G2F2F4 [|] 
[V:3] ^C2D2D4 [|] 
[V:4] A,4D,2D,4 [|] 
[V:1] =B4c2 [|] 
[V:2] G4A2 [|] 
[V:3] D2>E2F2 [|] 
[V:4] G,4F,2 [|] 
[V:1] d6c=B [|] 
[V:2] B2>A2GFG2 [|] 
[V:3] D4D4 [|] 
[V:4] B,4B,4 [|] 
[V:1] ^c2e2f3e [|] 
[V:2] A2A2c2c2 [|] 
[V:3] E2E2A3G [|] 
[V:4] A,2A,2F,2F,2 [|] 
[V:1] d2d4c2 [|] 
[V:2] B2B2A3G [|] 
[V:3] F2G2E4 [|] 
[V:4] B,2G,2A,4 [|] 
[V:1] B2A2d2d2 [|] 
[V:2] ^F4A2B2 [|] 
[V:3] D4F2D2 [|] 
[V:4] D,2D2>C2B,2 [|] 
[V:1] c2c2c4 [|] 
[V:2] G2A4G2 [|] 
[V:3] E2F4E2 [|] 
[V:4] C2F,2C4 [|] 
[V:1] c2c2G2B2 [|] 
[V:2] A2G4G2 [|] 
[V:3] F2E4D3 [|] 
[V:4] F,2C4G,2 [|] 
[V:1] F2>G2A2G2 [|] 
[V:2] D2>E2F2E2 [|] 
[V:3] CB,2C2C2 [|] 
[V:4] B,2B,2F,2C,2 [|] 
[V:1] B2>c2def2 [|] 
[V:2] D2G4FG [|] 
[V:3] G,2B,2>C2D2 [|] 
[V:4] G,2G,4D,2 [|] 
[V:1] e2d2d6 [|] 
[V:2] A2A2G4 [|] 
[V:3] C2D2B,8 [|] 
[V:4] A,2^F,2G,8 [|] 
[V:1] c=Bc2A2 [|] 
[V:2] G4E4 [|] 
[V:3] A,3=B, [|] 
[V:4] A,4 [|] 
[V:1] A8 |]  
[V:2] E8 |]  
[V:3] ^C8 |]  
[V:4] A,,8 |]  


